src/status/24/microphone-sensitivity-muted-symbolic.svg

<?xml version="1.0" encoding="UTF-8" standalone="no"?>
<svg
   xmlns:dc="http://purl.org/dc/elements/1.1/"
   xmlns:cc="http://creativecommons.org/ns#"
   xmlns:rdf="http://www.w3.org/1999/02/22-rdf-syntax-ns#"
   xmlns:svg="http://www.w3.org/2000/svg"
   xmlns="http://www.w3.org/2000/svg"
   height="24"
   width="24"
   version="1.1"
   id="svg6">
  <metadata
     id="metadata12">
    <rdf:RDF>
      <cc:Work
         rdf:about="">
        <dc:format>image/svg+xml</dc:format>
        <dc:type
           rdf:resource="http://purl.org/dc/dcmitype/StillImage" />
        <dc:title></dc:title>
      </cc:Work>
    </rdf:RDF>
  </metadata>
  <defs
     id="defs10" />
  <path
     id="path2-3"
     d="M 6.3515625 4.7363281 L 5.4121094 5.6777344 L 18.955078 19.220703 L 19.894531 18.279297 L 15.810547 14.195312 A 3.981 3.981 0 0 0 16 13 L 16 11 L 17 11 L 17 10 L 15 10 L 15 13 C 15 13.118276 14.97115 13.227751 14.957031 13.341797 L 14 12.384766 L 14 7 C 14 5.892 13.108 5 12 5 C 10.892 5 10 5.892 10 7 L 10 8.3847656 L 6.3515625 4.7363281 z M 7 10 L 7 11 L 8 11 L 8 13 A 3.981 3.981 0 0 0 11 16.861328 L 11 19 L 10 19 L 10 20 L 14 20 L 14 19 L 13 19 L 13 16.861328 A 3.981 3.981 0 0 0 14.517578 16.097656 L 13.804688 15.384766 C 13.301885 15.765249 12.681947 16 12 16 C 10.338 16 9 14.662 9 13 L 9 10.580078 L 8.4199219 10 L 7 10 z M 10 11.580078 L 10 13 C 10 14.108 10.892 15 12 15 C 12.40516 15 12.779407 14.879319 13.09375 14.673828 L 10 11.580078 z "
     style="color:#bebebe;overflow:visible;isolation:auto;mix-blend-mode:normal;fill:#363636;marker:none;font-variant-east_asian:normal;opacity:0.5;vector-effect:none;fill-opacity:1;stroke-width:1;stroke-linecap:butt;stroke-linejoin:miter;stroke-miterlimit:4;stroke-dasharray:none;stroke-dashoffset:0;stroke-opacity:1" />
</svg>

<svg xmlns="http://www.w3.org/2000/svg" width="24" height="24">
    <path d="m6.352 4.736-.94.942L18.955 19.22l.94-.942-4.084-4.084A3.981 3.981 0 0 0 16 13v-2h1v-1h-2v3c0 .118-.029.228-.043.342L14 12.385V7c0-1.108-.892-2-2-2s-2 .892-2 2v1.385L6.352 4.736zM7 10v1h1v2a3.981 3.981 0 0 0 3 3.861V19h-1v1h4v-1h-1v-2.139a3.981 3.981 0 0 0 1.518-.763l-.713-.713A2.977 2.977 0 0 1 12 16c-1.662 0-3-1.338-3-3v-2.42L8.42 10H7zm3 1.58V13c0 1.108.892 2 2 2 .405 0 .78-.12 1.094-.326L10 11.58z" style="color:#bebebe;overflow:visible;isolation:auto;mix-blend-mode:normal;fill:#050505;marker:none;font-variant-east_asian:normal;opacity:.5;vector-effect:none;fill-opacity:1;stroke-width:1;stroke-linecap:butt;stroke-linejoin:miter;stroke-miterlimit:4;stroke-dasharray:none;stroke-dashoffset:0;stroke-opacity:1"/>
</svg>
